X: 722
T: Hongdu paotai
%%abc-version 2.0
%%abcx-abcm2ps-target-version 5.9.1 (29 Sep 2008)
%%abc-creator hum2abc beta
%%abcx-conversion-date 2013/10/02 07:52:30
%%abc-edited-by Helmut Schaffrath
%%humdrum-veritas 2859757169
%%humdrum-veritas-data 788689741
%%continueall 1
%%barnumbers 0
L: 1/8
M: 2/4
K: G
d B d e [I:setbarnb 1]| 
F ED2 | 
A B d B/ d/ | 
A4 | 
d B d e | 
F B A G | 
F> ED2 | 
D D/ E/ F E | 
D4 |]  



